Obsidian-SemiLight/actions/22s/kdenlive-zindex-top.svg

<svg viewBox="0 0 22 22" xmlns="http://www.w3.org/2000/svg"><path d="m3 3v1h16v-1zm12.5 2-.21875.2148438-3.28125 3.2304687.71875.7089844 2.28125-2.2460938v8.1523439 3.939453h1v-3.939453-8.1523439l2.28125 2.2460938.71875-.7089844-3.28125-3.2304687zm-12.5 3v1h8v-1zm0 5v1h8v-1zm0 5v1h8v-1z" fill="#4d4d4d"/></svg>

<svg xmlns="http://www.w3.org/2000/svg" viewBox="0 0 22 22">
  <defs id="defs3051">
    <style type="text/css" id="current-color-scheme">
      .ColorScheme-Text {
        color:#4d4d4d;
      }
      </style>
  </defs>
 <path 
     style="fill:currentColor;fill-opacity:1;stroke:none" 
     d="M 3 3 L 3 4 L 19 4 L 19 3 L 3 3 z M 15.5 5 L 15.28125 5.2148438 L 12 8.4453125 L 12.71875 9.1542969 L 15 6.9082031 L 15 15.060547 L 15 19 L 16 19 L 16 15.060547 L 16 6.9082031 L 18.28125 9.1542969 L 19 8.4453125 L 15.71875 5.2148438 L 15.5 5 z M 3 8 L 3 9 L 11 9 L 11 8 L 3 8 z M 3 13 L 3 14 L 11 14 L 11 13 L 3 13 z M 3 18 L 3 19 L 11 19 L 11 18 L 3 18 z "
     class="ColorScheme-Text"
     />
</svg>
